src/assets/filled/Snapchat.svg

<svg width="24" height="24" viewBox="0 0 24 24"  xmlns="http://www.w3.org/2000/svg">
<path fill-rule="evenodd" clip-rule="evenodd" d="M12 2C6.48 2 2 6.48 2 12C2 17.52 6.48 22 12 22C17.52 22 22 17.52 22 12C22 6.48 17.52 2 12 2ZM17.31 15.31C17.02 15.47 16.78 15.54 16.58 15.59C16.41 15.63 16.27 15.67 16.15 15.75C16.02 15.83 16.01 15.96 15.99 16.08C15.97 16.19 15.96 16.28 15.88 16.34C15.79 16.4 15.62 16.41 15.39 16.42C15.09 16.44 14.71 16.45 14.25 16.59C14.03 16.67 13.83 16.79 13.63 16.91C13.23 17.16 12.78 17.43 11.99 17.43C11.21 17.43 10.76 17.16 10.36 16.91C10.16 16.78 9.96001 16.66 9.73001 16.58C9.28001 16.44 8.89 16.42 8.59 16.41C8.36 16.4 8.20001 16.39 8.10001 16.33C8.02001 16.28 8.00999 16.18 7.98999 16.07C7.96999 15.95 7.95999 15.82 7.82999 15.74C7.70999 15.66 7.55999 15.62 7.39999 15.57C7.19999 15.52 6.96001 15.46 6.67001 15.3C6.33001 15.11 6.53001 15 6.64001 14.94C8.57001 14.01 8.87 12.57 8.88 12.46C8.88 12.45 8.88 12.45 8.88 12.44C8.9 12.32 8.90999 12.22 8.76999 12.09C8.67999 12 8.37 11.8 8.12 11.64C8.00999 11.56 7.91001 11.5 7.85001 11.47C7.57001 11.27 7.45001 11.08 7.54001 10.83C7.60001 10.66 7.76001 10.6 7.92001 10.6C7.97001 10.6 8.03001 10.61 8.07001 10.62C8.25001 10.66 8.43 10.73 8.59 10.79C8.7 10.84 8.78999 10.87 8.85999 10.89C8.87999 10.9 8.91001 10.9 8.92001 10.9C9.02001 10.9 9.05001 10.85 9.04001 10.75C9.04001 10.72 9.04 10.69 9.03 10.66C9.01 10.31 8.97999 9.70001 9.01999 9.14001C9.09999 8.30001 9.37 7.87001 9.69 7.51001C9.85 7.33001 10.58 6.56 11.97 6.56C13.37 6.56 14.09 7.33 14.25 7.5C14.57 7.87 14.84 8.29001 14.92 9.14001C14.97 9.73001 14.93 10.36 14.9 10.71V10.74C14.89 10.85 14.92 10.89 15.02 10.89C15.04 10.89 15.06 10.89 15.08 10.88C15.15 10.86 15.24 10.83 15.35 10.79C15.5 10.73 15.68 10.66 15.87 10.62C15.92 10.6 15.97 10.6 16.02 10.6C16.19 10.6 16.34 10.67 16.4 10.84C16.49 11.08 16.37 11.27 16.09 11.47C16.04 11.51 15.94 11.58 15.82 11.64C15.58 11.8 15.26 12 15.17 12.09C15.03 12.22 15.04 12.32 15.06 12.44C15.06 12.45 15.06 12.46 15.06 12.46C15.08 12.57 15.38 14.01 17.3 14.94C17.45 15 17.65 15.12 17.31 15.31Z" />
</svg>

<?xml version="1.0" encoding="UTF-8"?>
<svg width="24" height="24" viewBox="0 0 24 24" xmlns="http://www.w3.org/2000/svg">
 <path d="m12 2c-5.52 0-10 4.48-10 10s4.48 10 10 10 10-4.48 10-10-4.48-10-10-10zm5.31 13.31c-0.29 0.16-0.53 0.23-0.73 0.28-0.17 0.04-0.31 0.08-0.43 0.16-0.13 0.08-0.14 0.21-0.16 0.33-0.02 0.11-0.03 0.2-0.11 0.26-0.09 0.06-0.26 0.07-0.49 0.08-0.3 0.02-0.68 0.03-1.14 0.17-0.22 0.08-0.42 0.2-0.62 0.32-0.4 0.25-0.85 0.52-1.64 0.52-0.78 0-1.23-0.27-1.63-0.52-0.2-0.13-0.39999-0.25-0.62999-0.33-0.45-0.14-0.84001-0.16-1.14-0.17-0.23-0.01-0.38999-0.02-0.48999-0.08-0.08-0.05-0.09002-0.15-0.11002-0.26-0.02-0.12-0.03-0.25-0.16-0.33-0.12-0.08-0.27-0.12-0.43-0.17-0.2-0.05-0.43998-0.11-0.72998-0.27-0.34-0.19-0.14-0.3-0.03-0.36 1.93-0.93 2.23-2.37 2.24-2.48v-0.02c0.02-0.12 0.02999-0.22-0.11001-0.35-0.09-0.09-0.39999-0.29-0.64999-0.45-0.11001-0.08-0.20999-0.14-0.26999-0.17-0.28-0.2-0.4-0.39-0.31-0.64 0.06-0.17 0.22-0.23 0.38-0.23 0.05 0 0.11 0.01 0.15 0.02 0.18 0.04 0.35999 0.11 0.51999 0.17 0.11 0.05 0.19999 0.08 0.26999 0.1 0.02 0.01 0.05002 0.01 0.06002 0.01 0.1 0 0.13-0.05 0.12-0.15 0-0.03-1e-5 -0.06-0.01001-0.09-0.02-0.35-0.05001-0.95999-0.01001-1.52 0.08-0.84 0.35001-1.27 0.67001-1.63 0.16-0.18 0.89-0.95001 2.28-0.95001 1.4 0 2.12 0.77 2.28 0.94 0.32 0.37 0.59 0.79001 0.67 1.64 0.05 0.59 0.01 1.22-0.02 1.57v0.03c-0.01 0.11 0.02 0.15 0.12 0.15 0.02 0 0.04 0 0.06-0.01 0.07-0.02 0.16-0.05 0.27-0.09 0.15-0.06 0.33-0.13 0.52-0.17 0.05-0.02 0.1-0.02 0.15-0.02 0.17 0 0.32 0.07 0.38 0.24 0.09 0.24-0.03 0.43-0.31 0.63-0.05 0.04-0.15 0.11-0.27 0.17-0.24 0.16-0.56 0.36-0.65 0.45-0.14 0.13-0.13 0.23-0.11 0.35v0.02c0.02 0.11 0.32 1.55 2.24 2.48 0.15 0.06 0.35 0.18 0.01 0.37z" clip-rule="evenodd" fill-rule="evenodd"/>
</svg>
